X: 15189
T: Gillian's
R: waltz
M: 3/4
K: Gmajor
BAG|E2 ED EG|E2 ED EG|A2 AG AB|
dG GA BG|A2 AG AG|1 B4:|2 G2 GB dg||
|:e3 e dB|dG GB AG|DA Ad DA|BG ABdg|
e3 e dB|d.G GB AG|DA AG AG|1 G2 g3 f:|2 G6||

